; generated by PrusaSlicer 2.3.3+win64 on 2021-11-06 at 14:44:57 UTC

; 

; external perimeters extrusion width = 0.45mm
; perimeters extrusion width = 0.45mm
; infill extrusion width = 0.45mm
; solid infill extrusion width = 0.45mm
; top infill extrusion width = 0.40mm
; first layer extrusion width = 0.42mm

M73 P0 R38
M73 Q0 S38
M201 X1000 Y1000 Z200 E5000 ; sets maximum accelerations, mm/sec^2
M203 X200 Y200 Z12 E120 ; sets maximum feedrates, mm/sec
M204 P1250 R1250 T1250 ; sets acceleration (P, T) and retract acceleration (R), mm/sec^2
M205 X8.00 Y8.00 Z0.40 E4.50 ; sets the jerk limits, mm/sec
M205 S0 T0 ; sets the minimum extruding and travel feed rate, mm/sec
M107
;TYPE:Custom
M862.3 P "MK3S" ; printer model check
M862.1 P0.4 ; nozzle diameter check
M115 U3.9.3 ; tell printer latest fw version
G90 ; use absolute coordinates
M83 ; extruder relative mode
M104 S215 ; set extruder temp
M140 S60 ; set bed temp
M190 S60 ; wait for bed temp
M109 S215 ; wait for extruder temp
G28 W ; home all without mesh bed level
G80 ; mesh bed leveling
G1 Y-3.0 F1000.0 ; go outside print area
G92 E0.0
G1 X60.0 E9.0 F1000.0 ; intro line
G1 X100.0 E12.5 F1000.0 ; intro line
G92 E0.0
M221 S95

; Don't change E values below. Excessive value can damage the printer.
M907 E430 ; set extruder motor current
G21 ; set units to millimeters
G90 ; use absolute coordinates
M83 ; use relative distances for extrusion
M900 K0.05 ; Filament gcode LA 1.5
M900 K30 ; Filament gcode LA 1.0
;LAYER_CHANGE
;Z:0.2
;HEIGHT:0.2
;BEFORE_LAYER_CHANGE
G92 E0.0
;0.2


G1 E-0.80000 F2100.000
G1 Z0.400 F10800.000
;AFTER_LAYER_CHANGE
;0.2
G1 X94.295 Y89.022
G1 Z0.200
G1 E0.80000 F2100.000
M204 S1000
;TYPE:Skirt
;WIDTH:0.42
G1 F1200.000
G1 X95.499 Y88.055 E0.04842
G1 X96.727 Y87.415 E0.04341
G1 X98.247 Y86.985 E0.04955
G1 X120.344 Y85.128 E0.69528
G1 X140.504 Y85.123 E0.63208
G1 X154.308 Y87.158 E0.43751
G1 X155.707 Y87.838 E0.04877
G1 X156.211 Y88.211 E0.01965
G1 X157.268 Y89.314 E0.04793
G1 X158.022 Y90.751 E0.05087
G1 X158.168 Y91.247 E0.01621
G1 X158.377 Y92.720 E0.04666
G1 X158.371 Y116.921 E0.75881
G1 X158.096 Y118.548 E0.05172
G1 X157.414 Y119.954 E0.04900
G1 X157.029 Y120.472 E0.02024
G1 X155.780 Y121.621 E0.05321
G1 X154.576 Y122.238 E0.04242
G1 X154.082 Y122.403 E0.01633
G1 X140.645 Y124.873 E0.42834
G1 X120.473 Y124.877 E0.63248
G1 X109.431 Y124.626 E0.34632
G1 X108.232 Y124.513 E0.03777
G1 X106.698 Y124.074 E0.05000
G1 X105.362 Y123.357 E0.04756
G1 X94.779 Y115.796 E0.40780
G1 X93.753 Y114.936 E0.04196
G1 X92.805 Y113.751 E0.04759
G1 X92.189 Y112.583 E0.04139
G1 X91.819 Y111.409 E0.03861
G1 X91.624 Y109.816 E0.05032
G1 X92.124 Y94.166 E0.49094
M73 P0 R37
G1 X92.232 Y93.027 E0.03587
G1 X92.669 Y91.466 E0.05082
G1 X93.357 Y90.166 E0.04613
G1 X94.256 Y89.068 E0.04448
; printing object Car (7).stl id:0 copy 0
;WIPE_START
G1 F8640.000
G1 X95.499 Y88.055 E-0.37018
G1 X96.727 Y87.415 E-0.31969
G1 X97.019 Y87.332 E-0.07013
;WIPE_END
G1 E-0.04000 F2100.000
G1 Z0.600 F10800.000
G1 X108.154 Y114.635
G1 Z0.200
G1 E0.80000 F2100.000
;TYPE:Perimeter
G1 F1200.000
G1 X108.385 Y114.528 E0.00799
G1 X108.813 Y114.390 E0.01408
G1 X109.268 Y114.317 E0.01446
G1 X109.720 Y114.317 E0.01417
G1 X109.973 Y114.347 E0.00799
G1 X110.410 Y114.453 E0.01408
G1 X110.836 Y114.629 E0.01447
G1 X111.221 Y114.864 E0.01413
G1 X111.420 Y115.023 E0.00799
G1 X111.727 Y115.330 E0.01364
G1 X111.886 Y115.529 E0.00799
G1 X112.115 Y115.904 E0.01376
G1 X112.222 Y116.135 E0.00799
G1 X112.360 Y116.563 E0.01408
G1 X112.433 Y117.018 E0.01446
G1 X112.433 Y117.470 E0.01417
G1 X112.403 Y117.723 E0.00799
G1 X112.297 Y118.160 E0.01408
G1 X112.121 Y118.586 E0.01447
G1 X111.886 Y118.971 E0.01413
G1 X111.727 Y119.170 E0.00799
G1 X111.420 Y119.477 E0.01363
G1 X111.221 Y119.636 E0.00799
G1 X110.836 Y119.871 E0.01413
G1 X110.410 Y120.047 E0.01447
G1 X109.973 Y120.153 E0.01408
G1 X109.721 Y120.183 E0.00797
G1 X109.279 Y120.183 E0.01385
G1 X109.027 Y120.153 E0.00797
G1 X108.590 Y120.047 E0.01408
G1 X108.164 Y119.871 E0.01447
G1 X107.779 Y119.636 E0.01413
G1 X107.580 Y119.477 E0.00799
G1 X107.273 Y119.170 E0.01363
G1 X107.114 Y118.971 E0.00799
G1 X106.879 Y118.586 E0.01413
G1 X106.703 Y118.160 E0.01447
G1 X106.597 Y117.723 E0.01408
G1 X106.567 Y117.471 E0.00797
G1 X106.567 Y117.029 E0.01385
G1 X106.597 Y116.777 E0.00797
G1 X106.703 Y116.340 E0.01408
G1 X106.879 Y115.914 E0.01447
G1 X107.114 Y115.529 E0.01413
G1 X107.273 Y115.330 E0.00799
G1 X107.580 Y115.023 E0.01363
G1 X107.779 Y114.864 E0.00799
G1 X108.103 Y114.666 E0.01188
G1 X108.299 Y114.988 F10800.000
;TYPE:External perimeter
G1 F1200.000
G1 X108.523 Y114.880 E0.00779
G1 X108.901 Y114.758 E0.01246
G1 X109.298 Y114.694 E0.01260
G1 X109.698 Y114.694 E0.01254
G1 X109.907 Y114.719 E0.00659
G1 X110.293 Y114.812 E0.01246
G1 X110.665 Y114.966 E0.01262
G1 X111.004 Y115.174 E0.01247
G1 X111.168 Y115.304 E0.00659
G1 X111.446 Y115.582 E0.01229
G1 X111.576 Y115.746 E0.00659
G1 X111.782 Y116.082 E0.01234
G1 X111.870 Y116.273 E0.00660
G1 X111.992 Y116.651 E0.01246
G1 X112.056 Y117.048 E0.01260
G1 X112.056 Y117.448 E0.01254
G1 X112.031 Y117.657 E0.00659
G1 X111.938 Y118.043 E0.01246
G1 X111.784 Y118.415 E0.01262
G1 X111.576 Y118.754 E0.01247
G1 X111.446 Y118.919 E0.00659
G1 X111.169 Y119.196 E0.01229
G1 X111.004 Y119.326 E0.00659
G1 X110.665 Y119.534 E0.01247
G1 X110.293 Y119.688 E0.01262
G1 X109.907 Y119.781 E0.01246
G1 X109.698 Y119.806 E0.00657
G1 X109.302 Y119.806 E0.01244
G1 X109.093 Y119.781 E0.00657
G1 X108.707 Y119.688 E0.01246
G1 X108.335 Y119.534 E0.01262
G1 X107.996 Y119.326 E0.01247
G1 X107.831 Y119.196 E0.00659
G1 X107.554 Y118.919 E0.01229
G1 X107.424 Y118.754 E0.00659
G1 X107.216 Y118.415 E0.01247
G1 X107.062 Y118.043 E0.01262
G1 X106.969 Y117.657 E0.01246
G1 X106.944 Y117.448 E0.00657
G1 X106.944 Y117.052 E0.01244
G1 X106.969 Y116.843 E0.00657
G1 X107.062 Y116.457 E0.01246
G1 X107.216 Y116.085 E0.01262
G1 X107.424 Y115.746 E0.01247
G1 X107.554 Y115.582 E0.00659
G1 X107.831 Y115.304 E0.01229
G1 X107.996 Y115.174 E0.00659
G1 X108.248 Y115.019 E0.00927
G1 X108.306 Y114.740 F10800.000
;WIPE_START
G1 F8640.000
G1 X108.523 Y114.880 E-0.07113
G1 X108.901 Y114.758 E-0.09176
G1 X109.298 Y114.694 E-0.09282
G1 X109.698 Y114.694 E-0.09232
G1 X109.907 Y114.719 E-0.04855
G1 X110.293 Y114.812 E-0.09173
G1 X110.665 Y114.966 E-0.09291
G1 X111.004 Y115.174 E-0.09187
G1 X111.168 Y115.304 E-0.04850
G1 X111.286 Y115.422 E-0.03841
;WIPE_END
G1 E-0.04000 F2100.000
G1 Z0.600 F10800.000
G1 X107.161 Y113.751
G1 Z0.200
G1 E0.80000 F2100.000
;TYPE:Perimeter
G1 F1200.000
G1 X107.890 Y113.362 E0.02590
G1 X108.679 Y113.122 E0.02588
G1 X109.500 Y113.041 E0.02585
G1 X110.321 Y113.122 E0.02585
G1 X111.110 Y113.362 E0.02588
G1 X111.839 Y113.751 E0.02590
G1 X112.477 Y114.273 E0.02585
G1 X112.999 Y114.911 E0.02585
G1 X113.388 Y115.640 E0.02590
G1 X113.628 Y116.429 E0.02588
G1 X113.709 Y117.250 E0.02585
G1 X113.628 Y118.071 E0.02585
G1 X113.388 Y118.860 E0.02588
G1 X112.999 Y119.589 E0.02590
G1 X112.477 Y120.227 E0.02585
G1 X111.839 Y120.749 E0.02585
G1 X111.110 Y121.138 E0.02590
G1 X110.321 Y121.378 E0.02588
G1 X109.500 Y121.459 E0.02585
G1 X108.679 Y121.378 E0.02585
G1 X107.890 Y121.138 E0.02588
G1 X107.161 Y120.749 E0.02590
G1 X106.523 Y120.227 E0.02585
G1 X106.001 Y119.589 E0.02585
G1 X105.612 Y118.860 E0.02590
G1 X105.372 Y118.071 E0.02588
G1 X105.291 Y117.250 E0.02585
G1 X105.372 Y116.429 E0.02585
G1 X105.612 Y115.640 E0.02588
G1 X106.001 Y114.911 E0.02590
G1 X106.523 Y114.273 E0.02585
G1 X107.115 Y113.789 E0.02397
G1 X106.876 Y113.497 F10800.000
;TYPE:External perimeter
G1 F1200.000
G1 X106.951 Y113.436 E0.00304
G1 X107.745 Y113.012 E0.02822
G1 X108.605 Y112.750 E0.02821
G1 X109.500 Y112.662 E0.02818
G1 X110.395 Y112.750 E0.02818
G1 X111.255 Y113.012 E0.02821
G1 X112.049 Y113.436 E0.02822
G1 X112.745 Y114.005 E0.02818
G1 X113.314 Y114.701 E0.02818
G1 X113.738 Y115.495 E0.02822
G1 X114.000 Y116.355 E0.02821
G1 X114.088 Y117.250 E0.02818
G1 X114.000 Y118.145 E0.02818
G1 X113.738 Y119.005 E0.02821
G1 X113.314 Y119.799 E0.02822
G1 X112.745 Y120.495 E0.02818
G1 X112.049 Y121.064 E0.02818
G1 X111.255 Y121.488 E0.02822
G1 X110.395 Y121.750 E0.02821
G1 X109.500 Y121.838 E0.02818
G1 X108.605 Y121.750 E0.02818
G1 X107.745 Y121.488 E0.02821
G1 X106.951 Y121.064 E0.02822
G1 X106.255 Y120.495 E0.02818
G1 X105.686 Y119.799 E0.02818
G1 X105.262 Y119.005 E0.02822
G1 X105.000 Y118.145 E0.02821
G1 X104.912 Y117.250 E0.02818
G1 X105.000 Y116.355 E0.02818
G1 X105.262 Y115.495 E0.02821
G1 X105.686 Y114.701 E0.02822
G1 X106.255 Y114.005 E0.02818
G1 X106.829 Y113.535 E0.02326
G1 X106.968 Y113.528 F10800.000
;WIPE_START
G1 F8640.000
G1 X106.951 Y113.436 E-0.03626
G1 X107.745 Y113.012 E-0.20785
G1 X108.605 Y112.750 E-0.20773
G1 X109.500 Y112.662 E-0.20755
G1 X109.934 Y112.705 E-0.10061
;WIPE_END
G1 E-0.04000 F2100.000
M73 Q1 S38
G1 Z0.600 F10800.000
G1 X111.479 Y113.687
G1 Z0.200
G1 E0.80000 F2100.000
;TYPE:Solid infill
;WIDTH:0.434823
G1 F1200.000
G1 X112.318 Y114.525 E0.03864
M73 P1 R37
G1 X112.763 Y115.069 E0.02289
G1 X113.126 Y115.748 E0.02511
G1 X113.187 Y115.949 E0.00682
G1 X110.801 Y113.563 E0.10993
G1 X110.265 Y113.400 E0.01827
G1 X110.064 Y113.381 E0.00657
G1 X113.369 Y116.686 E0.15231
G1 X113.421 Y117.291 E0.01981
G1 X112.638 Y116.508 E0.03609
G1 X112.715 Y116.996 E0.01609
G1 X112.715 Y117.140 E0.00470
G1 X113.371 Y117.796 E0.03022
G1 X113.350 Y118.015 E0.00718
G1 X113.277 Y118.255 E0.00819
G1 X112.693 Y117.672 E0.02688
G1 X112.596 Y118.129 E0.01521
G1 X113.147 Y118.681 E0.02542
G1 X113.126 Y118.752 E0.00242
G1 X112.965 Y119.052 E0.01112
G1 X112.448 Y118.535 E0.02383
G1 X112.374 Y118.715 E0.00632
G1 X112.260 Y118.901 E0.00713
G1 X112.772 Y119.414 E0.02361
G1 X112.763 Y119.431 E0.00065
G1 X112.525 Y119.721 E0.01221
G1 X112.038 Y119.234 E0.02246
G1 X111.774 Y119.524 E0.01278
G1 X112.276 Y120.026 E0.02314
G1 X111.971 Y120.275 E0.01283
G1 X111.484 Y119.788 E0.02246
G1 X111.151 Y120.010 E0.01302
G1 X111.664 Y120.522 E0.02361
G1 X111.302 Y120.715 E0.01335
G1 X110.785 Y120.198 E0.02383
G1 X110.497 Y120.317 E0.01015
G1 X110.379 Y120.346 E0.00398
G1 X110.930 Y120.897 E0.02542
G1 X110.505 Y121.027 E0.01448
G1 X109.922 Y120.443 E0.02688
G1 X109.738 Y120.465 E0.00606
G1 X109.390 Y120.465 E0.01133
G1 X110.046 Y121.121 E0.03022
G1 X109.541 Y121.171 E0.01652
G1 X108.505 Y120.134 E0.04776
;WIPE_START
G1 F8640.000
G1 X109.541 Y121.171 E-0.33845
G1 X110.046 Y121.121 E-0.11707
G1 X109.390 Y120.465 E-0.21416
G1 X109.738 Y120.465 E-0.08028
G1 X109.781 Y120.460 E-0.01004
;WIPE_END
G1 E-0.04000 F2100.000
G1 Z0.600 F10800.000
G1 X110.495 Y114.365
G1 Z0.200
G1 E0.80000 F2100.000
G1 F1200.000
G1 X109.459 Y113.329 E0.04776
G1 X108.954 Y113.379 E0.01652
G1 X109.610 Y114.035 E0.03022
G1 X109.246 Y114.035 E0.01186
G1 X109.082 Y114.061 E0.00541
G1 X108.495 Y113.473 E0.02706
G1 X108.069 Y113.603 E0.01448
M73 Q1 S37
G1 X108.621 Y114.155 E0.02544
G1 X108.210 Y114.298 E0.01419
G1 X107.698 Y113.785 E0.02363
G1 X107.336 Y113.978 E0.01335
G1 X107.849 Y114.490 E0.02361
G1 X107.516 Y114.712 E0.01302
G1 X107.029 Y114.225 E0.02246
G1 X106.724 Y114.474 E0.01283
G1 X107.226 Y114.976 E0.02314
G1 X106.962 Y115.266 E0.01278
G1 X106.475 Y114.779 E0.02246
G1 X106.237 Y115.069 E0.01221
G1 X106.228 Y115.086 E0.00065
G1 X106.740 Y115.599 E0.02361
G1 X106.626 Y115.785 E0.00713
G1 X106.552 Y115.965 E0.00632
G1 X106.035 Y115.448 E0.02383
G1 X105.874 Y115.748 E0.01111
G1 X105.853 Y115.820 E0.00242
G1 X106.404 Y116.371 E0.02542
G1 X106.307 Y116.828 E0.01522
G1 X105.723 Y116.245 E0.02688
G1 X105.650 Y116.485 E0.00819
G1 X105.629 Y116.704 E0.00718
G1 X106.285 Y117.360 E0.03022
G1 X106.319 Y117.773 E0.01351
G1 X106.374 Y118.004 E0.00773
G1 X105.579 Y117.209 E0.03664
G1 X105.631 Y117.815 E0.01981
G1 X108.935 Y121.119 E0.15230
G1 X108.735 Y121.100 E0.00656
G1 X108.198 Y120.937 E0.01827
G1 X105.813 Y118.552 E0.10992
G1 X105.874 Y118.752 E0.00681
G1 X106.237 Y119.431 E0.02511
G1 X106.683 Y119.975 E0.02292
G1 X107.521 Y120.813 E0.03861
;WIPE_START
G1 F8640.000
G1 X106.683 Y119.975 E-0.27356
G1 X106.237 Y119.431 E-0.16238
G1 X105.874 Y118.752 E-0.17793
G1 X105.813 Y118.552 E-0.04827
G1 X106.113 Y118.851 E-0.09786
;WIPE_END
G1 E-0.04000 F2100.000
G1 Z0.600 F10800.000
G1 X121.813 Y95.037
G1 Z0.200
G1 E0.80000 F2100.000
;TYPE:Perimeter
;WIDTH:0.42
G1 F1200.000
G1 X123.853 Y95.037 E0.06397
G1 X123.853 Y95.784 E0.02342
G1 X137.147 Y95.784 E0.41682
G1 X137.147 Y95.037 E0.02342
G1 X139.187 Y95.037 E0.06397
G1 X139.187 Y88.687 E0.19910
G1 X139.813 Y88.687 E0.01962
G1 X139.813 Y95.037 E0.19910
G1 X141.853 Y95.037 E0.06397
G1 X141.853 Y95.784 E0.02342
G1 X142.616 Y95.784 E0.02393
G1 X143.280 Y95.985 E0.02173
G1 X144.414 Y97.115 E0.05019
G1 X144.623 Y97.812 E0.02280
G1 X144.623 Y112.215 E0.45160
G1 X144.422 Y112.877 E0.02170
G1 X143.285 Y114.009 E0.05031
G1 X142.615 Y114.216 E0.02198
G1 X141.853 Y114.216 E0.02389
G1 X141.853 Y114.963 E0.02342
G1 X139.813 Y114.963 E0.06397
G1 X139.813 Y121.313 E0.19910
G1 X139.187 Y121.313 E0.01962
G1 X139.187 Y114.963 E0.19910
G1 X137.147 Y114.963 E0.06397
G1 X137.147 Y114.216 E0.02342
G1 X123.853 Y114.216 E0.41682
G1 X123.853 Y114.963 E0.02342
G1 X121.813 Y114.963 E0.06397
G1 X121.813 Y121.313 E0.19910
G1 X121.187 Y121.313 E0.01962
G1 X121.187 Y114.963 E0.19910
G1 X119.147 Y114.963 E0.06397
G1 X119.147 Y114.171 E0.02482
G1 X118.630 Y114.015 E0.01692
G1 X117.504 Y112.893 E0.04985
G1 X117.287 Y112.093 E0.02597
G1 X117.287 Y97.902 E0.44494
G1 X117.499 Y97.113 E0.02562
G1 X118.625 Y95.990 E0.04987
G1 X119.147 Y95.830 E0.01712
G1 X119.147 Y95.037 E0.02485
G1 X121.187 Y95.037 E0.06397
G1 X121.187 Y88.687 E0.19910
G1 X121.813 Y88.687 E0.01962
G1 X121.813 Y94.977 E0.19722
G1 X122.190 Y94.660 F10800.000
;TYPE:External perimeter
G1 F1200.000
G1 X124.230 Y94.660 E0.06397
G1 X124.230 Y95.407 E0.02342
G1 X136.770 Y95.407 E0.39317
G1 X136.770 Y94.660 E0.02342
G1 X138.810 Y94.660 E0.06397
G1 X138.810 Y88.310 E0.19910
G1 X140.190 Y88.310 E0.04327
G1 X140.190 Y94.660 E0.19910
G1 X142.230 Y94.660 E0.06397
G1 X142.230 Y95.407 E0.02342
G1 X142.672 Y95.407 E0.01386
G1 X143.479 Y95.652 E0.02644
G1 X144.747 Y96.915 E0.05613
G1 X145.000 Y97.756 E0.02753
G1 X145.000 Y112.271 E0.45510
G1 X144.755 Y113.077 E0.02642
G1 X143.485 Y114.342 E0.05620
G1 X142.672 Y114.593 E0.02669
G1 X142.230 Y114.593 E0.01385
G1 X142.230 Y115.340 E0.02342
G1 X140.190 Y115.340 E0.06397
G1 X140.190 Y121.690 E0.19910
G1 X138.810 Y121.690 E0.04327
G1 X138.810 Y115.340 E0.19910
G1 X136.770 Y115.340 E0.06397
G1 X136.770 Y114.593 E0.02342
G1 X124.230 Y114.593 E0.39317
G1 X124.230 Y115.340 E0.02342
G1 X122.190 Y115.340 E0.06397
G1 X122.190 Y121.690 E0.19910
G1 X120.810 Y121.690 E0.04327
G1 X120.810 Y115.340 E0.19910
G1 X118.770 Y115.340 E0.06397
G1 X118.770 Y114.451 E0.02787
G1 X118.431 Y114.348 E0.01111
G1 X117.167 Y113.089 E0.05596
G1 X116.910 Y112.143 E0.03071
G1 X116.910 Y97.853 E0.44808
G1 X117.161 Y96.918 E0.03035
G1 X118.425 Y95.658 E0.05597
G1 X118.770 Y95.551 E0.01132
G1 X118.770 Y94.660 E0.02794
G1 X120.810 Y94.660 E0.06397
G1 X120.810 Y88.310 E0.19910
G1 X122.190 Y88.310 E0.04327
G1 X122.190 Y94.600 E0.19722
G1 X122.219 Y95.059 F10800.000
G1 X121.500 Y95.226
;TYPE:Gap fill
;WIDTH:0.291684
G1 F1200.000
G1 X121.500 Y88.876 E0.13135
;WIPE_START
G1 F8640.000
G1 X121.500 Y92.167 E-0.76000
;WIPE_END
G1 E-0.04000 F2100.000
G1 Z0.600 F10800.000
G1 X139.500 Y88.876
G1 Z0.200
G1 E0.80000 F2100.000
G1 F1200.000
G1 X139.500 Y95.226 E0.13135
;WIPE_START
G1 F8640.000
G1 X139.500 Y91.934 E-0.76000
;WIPE_END
G1 E-0.04000 F2100.000
G1 Z0.600 F10800.000
G1 X142.880 Y95.982
G1 Z0.200
G1 E0.80000 F2100.000
;TYPE:Solid infill
;WIDTH:0.421156
G1 F1200.000
G1 X144.164 Y97.266 E0.05711
G1 X144.340 Y97.853 E0.01928
G1 X144.340 Y97.978 E0.00391
G1 X142.260 Y95.897 E0.09253
;WIPE_START
G1 F8640.000
G1 X144.340 Y97.978 E-0.67932
G1 X144.340 Y97.853 E-0.02869
G1 X144.275 Y97.638 E-0.05199
;WIPE_END
G1 E-0.04000 F2100.000
G1 Z0.600 F10800.000
G1 X140.978 Y95.150
G1 Z0.200
G1 E0.80000 F2100.000
G1 F1200.000
G1 X144.340 Y98.512 E0.14954
G1 X144.340 Y99.047 E0.01682
G1 X140.613 Y95.320 E0.16579
